!!!OTL: An die Wankelmuethige.
!!!OTL-incipit: DIR FOLGEN MEINE THRAENEN
!!!COM: J. Ab. P. Schulz
!!!ARE: Europa, Mitteleuropa, Deutschland
!!!SCT: F0906
!!!TXL: @@DE
!!!YEM: Copyright 1995, estate of Helmut Schaffrath.
**kern	**text
*ICvox	*
*clefG2	*
*M2/4	*
*k[b-e-a-d-]	*
*f:	*
!LO:TX:a:t=Langſam.	!
{8cc	1._Dir
=1	=1
(16.b-L	fol-
32a-J)	.
(16.gL	-gen
32fJ)	.
8e	mei-
8f	-ne
=2	=2
8dd-	Thränen,
8cc}	.
!LO:TX:a:t=ten.	!
{4bn	dir,
=3	=3
8cc	die
8g\	du
(8gL	von
16a-J)	.
16g	mir
=4	=4
4g	fliehſt,
8r}	.
{8g	und
=5	=5
8a-	mein
8a	un-
8b-/	-end-
8bn/	-lich
=6	=6
16.cc/L	Sehnen
32dd-J	.
4b-X/	.
16r}	.
{16cc/	ganʒ
=7	=7
(32b-L	oh-
16.a-J)	.
(32gL	-ne
16.fJ)	.
(8dd-L	Thränen
16ccJ)	.
16e	.
=8	=8
4f;	ſiehſt.
8r}	.
==	==
!!!AGN: Liebes - Lied, Klage
!!!ONB: ESAC (Essen Associative Code) Database: FINK
!!!AMT: simple duple
!!!AIN: vox
!!!EED: Helmut Schaffrath
!!!EEV: 1.0
!!Text: Aus Fanny Willes
!!!GTL: Minnelieder
!!!source: Musikalischer Hausschatz der Deutschen. Eine Sammlung von über 1000 Liedern und Gesängen mit Singstimmen und Klavierbegleitung. Leipzig, Litterarisches Verlags-Haus.
!!!page: 667
!!!URL-scan: https://www.digitale-sammlungen.de/en/view/bsb11144622?page=581
!!!ENC: Anna Maria Matuszewska
!!!EEV: 2024/08/07
*-	*-